packages/icons/raw/imported/ChatCommentBubbleAlert.svg

<svg width="32" height="32" viewBox="0 0 32 32" fill="none" xmlns="http://www.w3.org/2000/svg">
<path d="M15.9696 25.5V25V25.5ZM25.5 15.952H26H25.5ZM25.4696 25.4342L25.4744 25.9342C25.6368 25.9326 25.7882 25.8523 25.8806 25.7189C25.9731 25.5854 25.9949 25.4153 25.9393 25.2628L25.4696 25.4342ZM23.9167 21.1786L23.5009 20.9008C23.4124 21.0333 23.3923 21.2002 23.447 21.35L23.9167 21.1786ZM16.5 11.6154C16.5 11.3392 16.2761 11.1154 16 11.1154C15.7239 11.1154 15.5 11.3392 15.5 11.6154H16.5ZM15.5 17.7051C15.5 17.9812 15.7239 18.2051 16 18.2051C16.2761 18.2051 16.5 17.9812 16.5 17.7051H15.5ZM15.5 20.2793C15.5 20.5554 15.7239 20.7793 16 20.7793C16.2761 20.7793 16.5 20.5554 16.5 20.2793H15.5ZM16.5 19.8459C16.5 19.5698 16.2761 19.3459 16 19.3459C15.7239 19.3459 15.5 19.5698 15.5 19.8459H16.5ZM26 15.952C26 10.4533 21.5205 6 16 6V7C20.973 7 25 11.0103 25 15.952H26ZM16 6C10.4795 6 6 10.4533 6 15.952H7C7 11.0103 11.027 7 16 7V6ZM6 15.952C6 21.442 10.4405 26 15.9696 26V25C11.0052 25 7 20.9023 7 15.952H6ZM24.3324 21.4564C25.386 19.8798 26 17.9866 26 15.952H25C25 17.7824 24.4482 19.4833 23.5009 20.9008L24.3324 21.4564ZM25.9393 25.2628L24.3864 21.0072L23.447 21.35L24.9998 25.6056L25.9393 25.2628ZM15.9696 26C19.1461 26 22.2923 25.9652 25.4744 25.9342L25.4647 24.9343C22.2804 24.9652 19.14 25 15.9696 25V26ZM15.5 11.6154V17.7051H16.5V11.6154H15.5ZM16.5 20.2793V19.8459H15.5V20.2793H16.5Z" fill="black"/>
</svg>

<svg width="32" height="32" fill="none" xmlns="http://www.w3.org/2000/svg"><path d="M15.97 25.5V25v.5Zm9.53-9.548h.5-.5Zm-.03 9.482.004.5a.5.5 0 0 0 .465-.671l-.47.171Zm-1.553-4.255L23.5 20.9a.5.5 0 0 0-.054.449l.47-.171ZM16.5 11.615a.5.5 0 1 0-1 0h1Zm-1 6.09a.5.5 0 0 0 1 0h-1Zm0 2.574a.5.5 0 0 0 1 0h-1Zm1-.433a.5.5 0 0 0-1 0h1Zm9.5-3.894C26 10.453 21.52 6 16 6v1c4.973 0 9 4.01 9 8.952h1ZM16 6c-5.52 0-10 4.453-10 9.952h1C7 11.01 11.027 7 16 7V6ZM6 15.952C6 21.442 10.44 26 15.97 26v-1C11.005 25 7 20.902 7 15.952H6Zm18.332 5.504A9.874 9.874 0 0 0 26 15.952h-1c0 1.83-.552 3.531-1.5 4.949l.832.555Zm1.607 3.807-1.553-4.256-.939.343L25 25.606l.94-.343ZM15.97 26c3.177 0 6.323-.035 9.505-.066l-.01-1c-3.184.031-6.324.066-9.494.066v1ZM15.5 11.615v6.09h1v-6.09h-1Zm1 8.664v-.433h-1v.433h1Z" fill="#000"/></svg>
